!!!OTL: 778. Abschiedsworte. / [Leichter Abschied.]
!!!ARE: Europa, Mitteleuropa, Deutschland, Hessen, Wetzlar, Ober - Lahnkreis
!!!SCT: E0778
!!!TXL: @@DE
!!!YEM: Copyright 1995, estate of Helmut Schaffrath.
**kern	**text
*ICvox	*
*M4/4	*
*met(c)	*
*k[f#]	*
*G:	*
=1	=1
!LO:TX:a:t=Aus Kreis Wetʒlar und Oberlahnkreis.	!
{4.g	'Mei-
8d	-ne
4g	Red
(8bq	.
4dd)	iſt
=2	=2
4b	abſchiedsvoll,
8bL	.
8aJ	.
2g}	.
=3	=3
{4.b	ſchönſter
8a	.
4b	Schatʒ
8ddL	nun
8eeJ	.
=4	=4
4dd	le-
8ccL	-be
8bJ	.
2a}	wohl,
=5	=5
{4g	le-
4ee	-be
4dd	wohl
8ddL	ſchön
8ccJ	.
=6	=6
4b	Schä-
4dd	-tʒe-
2cc}	-lein,
=7	=7
{4a	da
4dd	ich
4.b	kann,
8a	und
=8	=8
4g	da
4a	ich
4b}	kann
{4dd	nicht
=9	=9
4ee	bei
8ddL	dir
8ccJ	.
2b}	ſein!'
==	==
!!!AGN: Abschieds - Lied, Wander - Lied, Liebe
!!!ONB: ESAC (Essen Associative Code) Database: ERK2
!!!AMT: simple quadruple
!!!AIN: vox
!!!EED: Helmut Schaffrath
!!!EEV: 1.0
!!!GTL: Abschieds- und Wanderlieder
!!!URL-scan: https://rosdok.uni-rostock.de/mcrviewer/recordIdentifier/rosdok_ppn745177662/iview2/phys_0583.iview2?x=117.07978409612633&y=1588.4049701713957&scale=0.7029437510502773&rotation=0&layout=singlePageLayout
!!!ENC: Anna Maria Matuszewska
!!!EEV: 2024/12/17
*-	*-
